docs/img/icons/contacts/tg.svg

<svg width="38" height="38" viewBox="0 0 38 38" fill="none" xmlns="http://www.w3.org/2000/svg">
<path d="M37.8917 3.4594L32.1573 35.7062C31.7247 37.982 30.5964 38.5485 28.9932 37.4763L20.2558 29.799L16.0398 34.634C15.5732 35.1903 15.183 35.6556 14.2838 35.6556L14.9116 25.0449L31.1054 7.59646C31.8095 6.84794 30.9527 6.43322 30.0111 7.18174L9.99147 22.2127L1.37284 18.9961C-0.501876 18.2982 -0.535808 16.7607 1.76306 15.6885L35.4741 0.202361C37.035 -0.495577 38.4007 0.617078 37.8917 3.4594Z" fill="#00C35B"/>
</svg>

<svg width="38" height="38" fill="none" xmlns="http://www.w3.org/2000/svg"><path d="M37.892 3.46l-5.735 32.246c-.432 2.276-1.56 2.842-3.164 1.77L20.256 29.8l-4.216 4.835c-.467.556-.857 1.022-1.756 1.022l.628-10.611 16.193-17.45c.704-.748-.152-1.163-1.094-.414l-20.02 15.03-8.618-3.216c-1.875-.698-1.909-2.235.39-3.307L35.474.201c1.561-.698 2.927.415 2.418 3.257z" fill="#00C35B"/></svg>
